X: 1
T:The Gander in the Pratie Hole
M:6/8
L:1/8
Q:80
C:arr. Kent Hiestand
S:Jig
K:HP
{g}ceA{g}ceA|
{g}dcd{g}Bcd|
{g}ceA{g}ceA|  !
{g}dBA{gAGAG}A3|
{g}ceA{g}ceA|
{g}dcd{g}Bcd|  !
{g}fed{g}ecA|
{g}dBA{gAGAG}A3:|
{g}Ad{c}d{g}ded|  !
{g}cAB{g}cAG|
{g}Ad{c}d{g}ded|
{g}cAB{GdG}c3|  !
{g}Ad{c}d{g}ded|
{g}cAB{g}cde|
{g}fed{g}ecA|  !
{g}dBA{gAGAG}A3:|
